app/dist/common/images/westar-resources-limited.svg

<svg height="18" viewBox="0 0 18 18" width="18" xmlns="http://www.w3.org/2000/svg"><path d="m0 0h18v18h-18z" fill="#f0f3fa"/><path d="m11 7.75v-3.75l-1 1.04v3.9l2.48-.69zm2.73 1.07-4.17 1.34 1.31 1.65.22-1.02 3.91-1.48-1.27-.5zm-3.08 3.85-2.45-2.97-1.32 1.8.97-.1 2.49 2.6zm-5.04-1.07 2.41-3.13-2.02-.44.5.75-2.5 3.02z" fill="#042244"/><path d="m5.29 6.95-.95-1.39 4.2 1.21.46-.69v1.93z" fill="#c7a728"/></svg>

<!-- by TradingView --><svg width="18" height="18" viewBox="0 0 18 18" xmlns="http://www.w3.org/2000/svg"><path fill="#F0F3FA" d="M0 0h18v18H0z"/><path d="M11 7.75V4l-1 1.04v3.9l2.48-.69-1.48-.5ZM13.73 8.82l-4.17 1.34 1.31 1.65.22-1.02L15 9.31l-1.27-.5ZM10.65 12.67 8.2 9.7 6.88 11.5l.97-.1L10.34 14l.31-1.33ZM5.61 11.6l2.41-3.13L6 8.03l.5.75L4 11.8l1.61-.2Z" fill="#042244"/><path d="m5.29 6.95-.95-1.39 4.2 1.21.46-.69v1.93L5.29 6.95Z" fill="#C7A728"/></svg>
